X:1
T:The Hand of God on the Wall
T:The Hand of God on the Wall
T:Allie R. Fisher
T:Daniel S. Warner
T:PUBLIC DOMAIN
T:PUBLIC DOMAIN
C:Allie R. Fisher
Z:Daniel S. Warner
Z:PUBLIC DOMAIN
%%score ( 1 2 ) ( 3 4 )
L:1/8
Q:1/4=100
M:4/4
K:G
V:1 treble nm="Soprano"
V:2 treble 
V:3 bass nm="Bass"
V:4 bass 
V:1
 [DB]3/2 [Dc]/ | [Gd]2 [GB]3/2 [DA]/ [DG]3/2 [DG]/ [DE]3/2 [DF]/ | %2
w: 6.~See the|saints come to Zi- on and pos-|
w: 2.~All de-|ceived and de- ceiv- ing, see the|
w: 3.~How the|na- tions are drunk- en, and are|
w: 4.~Oh, the|sin and con- fu- sion, oh, the|
w: 5.~Hear the|loud voice from heav- en, “Come, my|
 [EG]3/2 [EA]/ [EG]3/2 [CE]/ [B,D]2 | [DG]3/2 [DA]/ | %4
w: sess the ho- ly land!|Make le-|
w: cit- y and her lords|Ri- ot|
w: sport- ing in their shame,|Ev- en|
w: van- i- ty and pride,|Of the|
w: peo- ple, gath- er home!”|For to|
 [GB]3/2 [GA]/ G3/2 [GB]/ [Gd]3/2 [DB]/ [DG]3/2 [GB]/ | [Fd]3/2 [Fd]/ [Fd]3/2 [Ge]/ [Fd]2 | %6
w: lu- jah! shout the free- dom! in the|liv- ing God we stand;|
w: in their car- nal pleas- ure, heed- ing|not Je- ho- vah’s words;|
w: scoff- ing at our Sav- ior, and pro-|fone His ho- ly name;|
w: mul- ti- tude of Sod- om who in|Bab- y- lon a- bide!|
w: you the signs are giv- en, that the|Lord is near to come;|
 [DB]3/2 [Dc]/ | [Gd]2 [GB]3/2 [DA]/ [DG]3/2 [DG]/ [DE]3/2 [DF]/ | %8
w: Since we|fol- low the Sav- ior, love and|
w: For He|speaks, now re- veal- ing mys- tic|
w: Far more|blind than Bel- shaz- zar, who so|
w: But all|hon- or to Je- sus! we have|
w: Now He|shakes eve- ry na- tion, heed the|
 [EG]3/2 [EA]/ [EG]3/2 [CE]/ [B,D]2 | [DG]3/2 [DA]/ | %10
w: serve Him Lord of all,|God bel’s|
w: Ba- bel’s ut- ter fall,|And the|
w: trem- bled with ap- pal,|They still|
w: heard His an- gel’s call,|And es-|
w: warn- ing, great and small,|For the|
 [GB]3/2 [GA]/ G3/2 [GB]/ [Gd]3/2 [DB]/ [DG]3/2 [DA]/ | [GB]3/2 [Ac]/ [GB]3/2 [DA]/ [DG]2 || %12
w: king- dom now is fin- ished, says the|hand up- on the wall.|
w: ho- ly read the writ- ing of their|God up- on the wall.|
w: ri- ot on to judg- ment, with their|doom up- on the wall.|
w: caped the sure de- struc- tion that is|writ- ten on the wall.|
w: wick- ed soon shall per- ish, say the|hand up- on the wall.|
"^Refrain" [DB]3/2 [Dc]/ | [Dd]2 [GB]2 [Ac]2 [Fe]3/2 [Fe]/ | (d4 B2) | [GB]3/2 [GB]/ | %16
w: ’Tis the|hand of God on the|wall, _|’Tis the|
w: ||||
w: ||||
w: ||||
w: ||||
 [FA]2 [GB]2 [Ac]2 [Bd]3/2 [Ac]/ | B6 | [B,D]3/2 [DG]/ | [GB]3 D [GB]2 [FA]2 | %20
w: hand of God on the|wall;|Bab- y-|lon the great is|
w: ||||
w: ||||
w: ||||
w: ||||
 [DA] [DG]3 [DG]2 [DF] [DG] | [DA]3 D [GB]2 [FA]2 | [DA] [DG]3 [DG]2 | [GB]3/2 [DA]/ | %24
w: fal- len, * and we’re|ful- ly saved in|Je- sus, *|While that|
w: ||||
w: ||||
w: ||||
w: ||||
 [DG]2 D2 [DF] [DA] G3/2 A/ | G6 |] %26
w: hand is writ- ing on the|wall.|
w: ||
w: ||
w: ||
w: ||
V:2
 x2 | x8 | x6 | x2 | z2 G3/2 z/ z4 | x6 | x2 | x8 | x6 | x2 | z2 G3/2 z/ z4 | x6 || x2 | x8 | %14
 G3/2 G/ G3/2 G/ G2 | z2 | x8 | G3/2 G/ G3/2 G/ G2 | x2 | z3 D z4 | x8 | z3 D z4 | x6 | x2 | %24
 z2 D2 z2 z2 | D D E E D2 |] %26
V:3
 G,3/2 [G,A,]/ | [G,B,]2 [G,D]3/2 [G,C]/ [G,B,]3/2 [G,B,]/ [G,B,]3/2 G,/ | %2
w: ||
 [C,G,]3/2 [C,C]/ [C,C]3/2 [C,G,]/ [G,,G,]2 | [G,B,]3/2 [G,C]/ | %4
w: ||
 [G,D]3/2 [G,C]/ [G,B,]3/2 [G,B,]/ [G,B,]3/2 G,/ [G,B,]3/2 G,/ | %5
w: |
 [D,A,]3/2 [D,A,]/ [D,A,]3/2 [D,A,]/ [D,A,]2 | G,3/2 [G,A,]/ | %7
w: ||
 [G,B,]2 [G,D]3/2 [G,C]/ [G,B,]3/2 [G,B,]/ [G,B,]3/2 G,/ | %8
w: |
 [C,G,]3/2 [C,C]/ [C,C]3/2 [C,G,]/ [G,,G,]2 | [G,B,]3/2 [G,C]/ | %10
w: ||
 [G,D]3/2 [G,C]/ [G,B,]3/2 [G,B,]/ [G,B,]3/2 G,/ [B,,D]3/2 [C,D]/ | %11
w: |
 [D,D]3/2 [D,D]/ [D,D]3/2 [D,C]/ [G,,B,]2 || G,3/2 [G,A,]/ | %13
w: ||
 [G,B,]2 [G,D]2 [D,D]2 [D,C]3/2 [D,C]/ | [G,B,]3/2 [G,B,]/ [G,B,]3/2 [G,B,]/ [G,B,]2 | %15
w: * * * that is|writ- ing on the wall,|
 [G,D]3/2 [G,D]/ | [D,D]2 [D,D]2 [D,D]2 [D,D]3/2 [D,D]/ | [G,D]3/2 [G,D]/ [G,D]3/2 [G,D]/ [G,D]2 | %18
w: |* * * that is|writ- ing on the wall;|
 G,3/2 [G,B,]/ | [G,D]3 [G,B,] [D,D]2 [D,C]2 | [G,C] [G,B,]3 [G,B,]2 [G,A,] [G,B,] | %21
w: |||
 [D,C]3 [D,B,] [D,D]2 [D,C]2 | [G,,C] [G,,B,]3 [G,,B,]2 | [G,D]3/2 [G,C]/ | %24
w: |||
 [G,B,]2 [G,B,]2 [D,C] [D,C] z2 | [G,B,] [G,B,] [G,C] [G,C] [G,B,]2 |] %26
w: |writ- ing on the wall.|
V:4
 G,3/2 z/ | z4 z2 z3/2 G,/ | x6 | x2 | z4 z3/2 G,/ z3/2 G,/ | z4 z2 | G,3/2 z/ | z4 z2 z3/2 G,/ | %8
 x6 | x2 | z4 z3/2 G,/ z2 | x6 || G,3/2 z/ | x8 | x6 | x2 | x8 | x6 | G,3/2 z/ | x8 | x8 | x8 | %22
 x6 | x2 | x8 | x6 |] %26

